docs/.gitbook/assets/icon-cricket-ball-16@dark.svg

<svg width="32" height="32" viewBox="0 0 16 16" fill="none" xmlns="http://www.w3.org/2000/svg">
<rect x="0" y="0" width="16" height="16" fill="#181c1f"/>
<path fill-rule="evenodd" clip-rule="evenodd" d="M3.6167 4.67736C2.9159 5.60043 2.5 6.75165 2.5 8C2.5 11.0376 4.96243 13.5 8 13.5C9.24835 13.5 10.3996 13.0841 11.3226 12.3833L11.2197 12.2803C10.9268 11.9874 10.9268 11.5126 11.2197 11.2197C11.5126 10.9268 11.9874 10.9268 12.2803 11.2197L12.3833 11.3226C13.0841 10.3996 13.5 9.24835 13.5 8C13.5 4.96243 11.0376 2.5 8 2.5C6.75165 2.5 5.60043 2.9159 4.67736 3.6167L4.78033 3.71967C5.07322 4.01256 5.07322 4.48744 4.78033 4.78033C4.48744 5.07322 4.01256 5.07322 3.71967 4.78033L3.6167 4.67736ZM1 8C1 4.13401 4.13401 1 8 1C11.866 1 15 4.13401 15 8C15 11.866 11.866 15 8 15C4.13401 15 1 11.866 1 8ZM5.21967 5.21967C5.51256 4.92678 5.98744 4.92678 6.28033 5.21967L6.78033 5.71967C7.07322 6.01256 7.07322 6.48744 6.78033 6.78033C6.48744 7.07322 6.01256 7.07322 5.71967 6.78033L5.21967 6.28033C4.92678 5.98744 4.92678 5.51256 5.21967 5.21967ZM7.21967 7.21967C7.51256 6.92678 7.98744 6.92678 8.28033 7.21967L8.78033 7.71967C9.07322 8.01256 9.07322 8.48744 8.78033 8.78033C8.48744 9.07322 8.01256 9.07322 7.71967 8.78033L7.21967 8.28033C6.92678 7.98744 6.92678 7.51256 7.21967 7.21967ZM9.21967 9.21967C9.51256 8.92678 9.98744 8.92678 10.2803 9.21967L10.7803 9.71967C11.0732 10.0126 11.0732 10.4874 10.7803 10.7803C10.4874 11.0732 10.0126 11.0732 9.71967 10.7803L9.21967 10.2803C8.92678 9.98744 8.92678 9.51256 9.21967 9.21967Z" fill="#fff"/>
</svg>

<svg xmlns="http://www.w3.org/2000/svg" width="32" height="32" fill="none" viewBox="0 0 16 16"><path fill="#181c1f" d="M0 0h16v16H0z"/><path fill="#fff" fill-rule="evenodd" d="M3.617 4.677a5.5 5.5 0 0 0 7.706 7.706l-.103-.103a.75.75 0 1 1 1.06-1.06l.103.103a5.5 5.5 0 0 0-7.706-7.706l.103.103a.75.75 0 0 1-1.06 1.06zM1 8a7 7 0 1 1 14 0A7 7 0 0 1 1 8m4.22-2.78a.75.75 0 0 1 1.06 0l.5.5a.75.75 0 0 1-1.06 1.06l-.5-.5a.75.75 0 0 1 0-1.06m2 2a.75.75 0 0 1 1.06 0l.5.5a.75.75 0 0 1-1.06 1.06l-.5-.5a.75.75 0 0 1 0-1.06m2 2a.75.75 0 0 1 1.06 0l.5.5a.75.75 0 1 1-1.06 1.06l-.5-.5a.75.75 0 0 1 0-1.06" clip-rule="evenodd"/></svg>
